X: 1
T: Lavender Coffin
C:Lionel Hampton
M: 4/4
L: 1/4
R: swing
Q:140
K: C
 G A | c2 c2 | e2  G A | _e c A c- |c z  G A | c2  z G | A G A G-|G z _E2 | C2 G A |
  c2 c2 | e2  G A | _e c A c- |c z  G A | c2  z G | A G _E2 C-|C z _E2 | C2 z2 |
